X: 537
T: The new way of Wooing
P: Longways for as many as will
%R: reel
B: "The Dancing-Master" printed by John Walsh, London
S: 6: CCDM1 http://imslp.org/wiki/The_Compleat_Country_Dancing-Master_(Various) V.1 p.1 #1
Z: 2013 John Chambers <jc:trillian.mit.edu>
N: 2nd part has initial repeat but no final repeat.
M: C|
L: 1/8
K: D
% - - - - - - - - - - - - - - - - - - - - - - - - -
A2 |\
F2 A4 de | f4 e2d2 | B4 A2F2 | E6 A2 |\
F2 A4 de | f4 e2d2 | A2B2 A2F2 | D6 :|
|: A2 |\
F2A2 (Bc)(dB) | F2A2 (Bc)(dB) | F2A2 (Bc)(dB) | e2 E4 A2 |\
F2A2 (Bc)(dB) | F2A2 (Bc)(dB) | (Bc)(dB) BcdB | d2D2 D2A2 |
F2A2 (Bc)(dB) | F2A2 (Bc)(dB) | F2A2 (Bc)(dB) | e2E2 E2fg |\
(a2f2) (g2e2) | (f2d2)  (e3f) | (d2B2)  (A3F) | D6 :|
% - - - - - - - - - - - - - - - - - - - - - - - - -
%%begintext align
%% The 1st Cu. cast off and lead through the 3d .|
%% First Cu. cast off again and lead up to the Top :|
%% the 1st and 2d Cu. foots it; then clap Hands,
%% foot it again, clap as before, 1st Cu. cast off.
%%endtext

%%sep 1 1 500
%%sep 1 1 500
